Adwaita++/apps/16/io.elementary.code.svg

<svg height="16" viewBox="0 0 16 16" width="16" xmlns="http://www.w3.org/2000/svg">
  <path d="m3.442 11.712v1.234q-1.21-.024-1.897-.723-.687-.699-.687-2.026v-.729q0-.399-.153-.628-.153-.229-.435-.229h-.27v-1.234h.27q.282 0 .435-.235.153-.235.153-.622v-.717q0-1.327.687-2.02.687-.693 1.897-.729v1.234q-1.21.07-1.21 1.304v.81q0 .74-.241 1.11-.241.371-.722.488.963.247.963 1.598v.81q0 1.257 1.21 1.304zm2.502-.417q-.27.264-.669.264-.4 0-.67-.264-.27-.264-.27-.652 0-.387.27-.652.27-.264.67-.264.399 0 .669.27.27.27.27.646 0 .388-.27.652zm2.726 0q-.271.264-.67.264-.399 0-.67-.264-.27-.264-.27-.652 0-.387.27-.652.271-.264.67-.264.399 0 .67.27.27.27.27.646 0 .388-.27.652zm2.725 0q-.27.264-.67.264-.399 0-.669-.264-.27-.264-.27-.652 0-.387.27-.652.27-.264.669-.264.4 0 .67.27.27.27.27.646 0 .388-.27.652zm1.163 1.651v-1.234q1.222-.059 1.222-1.304v-.81q0-1.351.963-1.598-.482-.117-.722-.488-.241-.37-.241-1.11v-.81q0-1.234-1.222-1.304v-1.234q1.21.036 1.903.735.693.699.693 2.014v.717q0 .387.153.622.153.235.435.235h.258v1.234h-.258q-.282 0-.435.229-.153.229-.153.628v.729q0 1.327-.693 2.026-.693.699-1.903.723z" fill="#444" fill-rule="evenodd"/>
</svg>

<svg xmlns="http://www.w3.org/2000/svg" width="16" height="16" viewBox="0 0 16 16">
 <path fill="#444" fill-rule="evenodd" d="M 3.442 11.712 L 3.442 12.946 L 3.442 12.946 Q 2.232 12.922 1.545 12.223 L 1.545 12.223 L 1.545 12.223 Q 0.858 11.524 0.858 10.197 L 0.858 10.197 L 0.858 9.468 L 0.858 9.468 Q 0.858 9.069 0.705 8.84 L 0.705 8.84 L 0.705 8.84 Q 0.552 8.611 0.27 8.611 L 0.27 8.611 L 0 8.611 L 0 7.377 L 0.27 7.377 L 0.27 7.377 Q 0.552 7.377 0.705 7.142 L 0.705 7.142 L 0.705 7.142 Q 0.858 6.907 0.858 6.52 L 0.858 6.52 L 0.858 5.803 L 0.858 5.803 Q 0.858 4.476 1.545 3.783 L 1.545 3.783 L 1.545 3.783 Q 2.232 3.09 3.442 3.054 L 3.442 3.054 L 3.442 4.288 L 3.442 4.288 Q 2.232 4.358 2.232 5.592 L 2.232 5.592 L 2.232 6.402 L 2.232 6.402 Q 2.232 7.142 1.991 7.512 L 1.991 7.512 L 1.991 7.512 Q 1.75 7.883 1.269 8 L 1.269 8 L 1.269 8 Q 2.232 8.247 2.232 9.598 L 2.232 9.598 L 2.232 10.408 L 2.232 10.408 Q 2.232 11.665 3.442 11.712 L 3.442 11.712 Z M 5.944 11.295 L 5.944 11.295 L 5.944 11.295 Q 5.674 11.559 5.275 11.559 L 5.275 11.559 L 5.275 11.559 Q 4.875 11.559 4.605 11.295 L 4.605 11.295 L 4.605 11.295 Q 4.335 11.031 4.335 10.643 L 4.335 10.643 L 4.335 10.643 Q 4.335 10.256 4.605 9.991 L 4.605 9.991 L 4.605 9.991 Q 4.875 9.727 5.275 9.727 L 5.275 9.727 L 5.275 9.727 Q 5.674 9.727 5.944 9.997 L 5.944 9.997 L 5.944 9.997 Q 6.214 10.267 6.214 10.643 L 6.214 10.643 L 6.214 10.643 Q 6.214 11.031 5.944 11.295 Z M 8.67 11.295 L 8.67 11.295 L 8.67 11.295 Q 8.399 11.559 8 11.559 L 8 11.559 L 8 11.559 Q 7.601 11.559 7.33 11.295 L 7.33 11.295 L 7.33 11.295 Q 7.06 11.031 7.06 10.643 L 7.06 10.643 L 7.06 10.643 Q 7.06 10.256 7.33 9.991 L 7.33 9.991 L 7.33 9.991 Q 7.601 9.727 8 9.727 L 8 9.727 L 8 9.727 Q 8.399 9.727 8.67 9.997 L 8.67 9.997 L 8.67 9.997 Q 8.94 10.267 8.94 10.643 L 8.94 10.643 L 8.94 10.643 Q 8.94 11.031 8.67 11.295 Z M 11.395 11.295 L 11.395 11.295 L 11.395 11.295 Q 11.125 11.559 10.725 11.559 L 10.725 11.559 L 10.725 11.559 Q 10.326 11.559 10.056 11.295 L 10.056 11.295 L 10.056 11.295 Q 9.786 11.031 9.786 10.643 L 9.786 10.643 L 9.786 10.643 Q 9.786 10.256 10.056 9.991 L 10.056 9.991 L 10.056 9.991 Q 10.326 9.727 10.725 9.727 L 10.725 9.727 L 10.725 9.727 Q 11.125 9.727 11.395 9.997 L 11.395 9.997 L 11.395 9.997 Q 11.665 10.267 11.665 10.643 L 11.665 10.643 L 11.665 10.643 Q 11.665 11.031 11.395 11.295 Z M 12.558 12.946 L 12.558 12.946 L 12.558 11.712 L 12.558 11.712 Q 13.78 11.653 13.78 10.408 L 13.78 10.408 L 13.78 9.598 L 13.78 9.598 Q 13.78 8.247 14.743 8 L 14.743 8 L 14.743 8 Q 14.261 7.883 14.021 7.512 L 14.021 7.512 L 14.021 7.512 Q 13.78 7.142 13.78 6.402 L 13.78 6.402 L 13.78 5.592 L 13.78 5.592 Q 13.78 4.358 12.558 4.288 L 12.558 4.288 L 12.558 3.054 L 12.558 3.054 Q 13.768 3.09 14.461 3.789 L 14.461 3.789 L 14.461 3.789 Q 15.154 4.488 15.154 5.803 L 15.154 5.803 L 15.154 6.52 L 15.154 6.52 Q 15.154 6.907 15.307 7.142 L 15.307 7.142 L 15.307 7.142 Q 15.46 7.377 15.742 7.377 L 15.742 7.377 L 16 7.377 L 16 8.611 L 15.742 8.611 L 15.742 8.611 Q 15.46 8.611 15.307 8.84 L 15.307 8.84 L 15.307 8.84 Q 15.154 9.069 15.154 9.468 L 15.154 9.468 L 15.154 10.197 L 15.154 10.197 Q 15.154 11.524 14.461 12.223 L 14.461 12.223 L 14.461 12.223 Q 13.768 12.922 12.558 12.946 Z"/>
</svg>
